X: 6978
T: Chicago, The
R: jig
M: 6/8
K: Gmajor
F2D DED|F2D DED|F2D DED|C2 ,G2 C2|
F2D DED|F2D DED|BBB cAG|AGF A3:|
|:B2B cde|dcB ABc|B2G GAB|AFD FED|
B2B cde|dcB ABc|B2B cAG|AGF G3:|

